X: 1
T:Sporting Jamie
M:C
L:1/8
Q:80
C:Traditional
S:Strathspey
K:HP
|: a|
{fg}f2{gef}e3/2d/2{g}f/2a3/2{g}a2|
{f}g3/2e/2{g}fe/2d/2{g}c/2e3/2{A}e/2a3/2|
{fg}f2{gef}e3/2d/2{g}f/2a3/2{g}aA|  !
{g}Bc/2d/2{g}cd/2e/2f/2{g}d3/2{gdG}d:|
a|
{Gdc}d3/2e/2{g}f3/2d/2{g}f/2a3/2{fg}f3/2d/2|
{gf}g3/2e/2{g}fe/2d/2{g}c/2e3/2{A}e/2a3/2|  !
{Gdc}d3/2e/2{g}f3/2d/2{g}f/2a3/2{fg}f3/2d/2|
{g}Bc/2d/2{g}cd/2e/2f/2{g}d3/2{gdG}da|
{Gdc}d3/2e/2{g}f3/2d/2{g}f/2a3/2{fg}f3/2d/2|  !
{gf}g3/2e/2{g}fe/2d/2{g}c/2e3/2{A}e/2a3/2|
{fg}f2{gef}e3/2d/2{g}f/2a3/2{g}a3/2A/2|
{g}Bc/2d/2{g}cd/2e/2f/2{g}d3/2{gdG}da|]  !
